dist/img/search-btn.svg

<svg width="101" height="54" fill="none" xmlns="http://www.w3.org/2000/svg"><rect width="101" height="54" rx="27" fill="#3670C7"/><path d="M56.25 30h-1.185l-.42-.405A9.707 9.707 0 0 0 57 23.25a9.75 9.75 0 0 0-9.75-9.75 9.75 9.75 0 0 0-9.75 9.75A9.75 9.75 0 0 0 47.25 33a9.707 9.707 0 0 0 6.345-2.355l.405.42v1.185l7.5 7.485 2.235-2.235L56.25 30Zm-9 0a6.741 6.741 0 0 1-6.75-6.75 6.741 6.741 0 0 1 6.75-6.75A6.741 6.741 0 0 1 54 23.25 6.741 6.741 0 0 1 47.25 30Z" fill="#fff"/></svg>

<svg width="101" height="54" viewBox="0 0 101 54" fill="none" xmlns="http://www.w3.org/2000/svg">
<rect width="101" height="54" rx="27" fill="#3670C7"/>
<path d="M56.25 30H55.065L54.645 29.595C56.115 27.885 57 25.665 57 23.25C57 17.865 52.635 13.5 47.25 13.5C41.865 13.5 37.5 17.865 37.5 23.25C37.5 28.635 41.865 33 47.25 33C49.665 33 51.885 32.115 53.595 30.645L54 31.065V32.25L61.5 39.735L63.735 37.5L56.25 30ZM47.25 30C43.515 30 40.5 26.985 40.5 23.25C40.5 19.515 43.515 16.5 47.25 16.5C50.985 16.5 54 19.515 54 23.25C54 26.985 50.985 30 47.25 30Z" fill="white"/>
</svg>
